fs/receipt_cube_20_filled.svg

<svg viewBox="0 0 20 20" fill="none" xmlns="http://www.w3.org/2000/svg" height="1em" width="1em">
  <path d="M4 4C4 2.89543 4.89543 2 6 2H13C14.1046 2 15 2.89543 15 4V11H18V13C18 14.6569 16.6569 16 15 16H10.5002V11.618C10.5002 11.2393 10.2862 10.893 9.94745 10.7236L5.94733 8.7236C5.6658 8.58284 5.33443 8.58284 5.0529 8.72361L4 9.25008V4ZM15 15C16.1046 15 17 14.1046 17 13V12H15V15ZM7.5 5C7.22386 5 7 5.22386 7 5.5C7 5.77614 7.22386 6 7.5 6H11.5C11.7761 6 12 5.77614 12 5.5C12 5.22386 11.7761 5 11.5 5H7.5ZM7.5 7C7.22386 7 7 7.22386 7 7.5C7 7.77614 7.22386 8 7.5 8H11.5C11.7761 8 12 7.77614 12 7.5C12 7.22386 11.7761 7 11.5 7H7.5ZM1.5 15.882V12.118C1.5 11.7393 1.714 11.393 2.05279 11.2236L5.05279 9.72361C5.33431 9.58285 5.66569 9.58285 5.94721 9.72361L8.94721 11.2236C9.286 11.393 9.5 11.7393 9.5 12.118V15.882C9.5 16.2607 9.286 16.607 8.94721 16.7764L5.94721 18.2764C5.66569 18.4172 5.33431 18.4172 5.05279 18.2764L2.05279 16.7764C1.714 16.607 1.5 16.2607 1.5 15.882ZM2.53938 12.3055C2.43196 12.5598 2.55111 12.8532 2.80551 12.9606L5.00004 13.8872L5 16.4999C5 16.7761 5.22385 16.9999 5.49999 16.9999C5.77614 17 6 16.7761 6 16.5L6.00004 13.8872L8.1945 12.9606C8.44889 12.8531 8.56804 12.5598 8.46062 12.3054C8.3532 12.0511 8.0599 11.9319 7.8055 12.0393L5.50004 13.0128L3.19449 12.0393C2.9401 11.9319 2.64679 12.0511 2.53938 12.3055Z" fill="#212121"/>
</svg>

<svg viewBox="0 0 20 20" fill="none" xmlns="http://www.w3.org/2000/svg" height="1em" width="1em">
  <path d="M4 4a2 2 0 0 1 2-2h7a2 2 0 0 1 2 2v7h3v2a3 3 0 0 1-3 3h-4.5v-4.382a1 1 0 0 0-.553-.894l-4-2a1 1 0 0 0-.894 0L4 9.25V4Zm11 11a2 2 0 0 0 2-2v-1h-2v3ZM7.5 5a.5.5 0 0 0 0 1h4a.5.5 0 0 0 0-1h-4Zm0 2a.5.5 0 0 0 0 1h4a.5.5 0 0 0 0-1h-4Zm-6 8.882v-3.764a1 1 0 0 1 .553-.894l3-1.5a1 1 0 0 1 .894 0l3 1.5a1 1 0 0 1 .553.894v3.764a1 1 0 0 1-.553.894l-3 1.5a1 1 0 0 1-.894 0l-3-1.5a1 1 0 0 1-.553-.894Zm1.04-3.576a.5.5 0 0 0 .266.655L5 13.887V16.5a.5.5 0 0 0 1 0v-2.613l2.194-.926a.5.5 0 0 0-.389-.922l-2.305.974-2.306-.974a.5.5 0 0 0-.655.267Z" fill="#212121"/>
</svg>
